X: 40655
T: Top Of The Hill
R: reel
M: 4/4
K: Fmajor
"F"F3D AGFD|~F2Ac dAAd|"Bbmaj7"c2AG AGFA|"C"GAcd "C/E"AGGA|
"F"F3D AGFD|~F2Ac df~f2|"Bbmaj7"agfc dffd|1 "C"cAGc "CE"AFFC:|2 "C"cAGc "C/E"Acef||
|:"Dm7"d3c Ad~d2|"Am7"FAef ecAc|"Gm7"A2fe dcAc|"C"fA~A2 "C/E"GAeg|
"Dm7"d3c Ad~d2|"Am7"FAef ecAc|"Gm7"agfc dffd|1 "C"cAGc "C/E"Acef:|2 "C"cAGc "C/E"AFFC||

